src/icons/svg/task.svg

<?xml version="1.0" encoding="UTF-8"?>
<svg width="40px" height="42px" viewBox="0 0 40 42" version="1.1" xmlns="http://www.w3.org/2000/svg"
>
    <path d="M36.3729336,41.0180177 L3.62224883,41.0180177 C1.62530454,41.0180177 0,39.4213431 0,37.4632146 L0,5.33468225 C0.00481756585,3.37627836 1.62048698,1.7846967 3.62224883,1.7846967 L9.60317136,1.7846967 C10.2350966,0.723596398 11.3877304,0 12.7238441,0 L27.2808358,0 C28.6166742,0 29.769721,0.723596358 30.4015086,1.7846967 L36.3535258,1.7846967 C38.3601051,1.77987914 39.9903649,3.37146083 40,5.33468225 L40,37.4632146 C39.9905026,39.4262983 38.3698779,41.0132001 36.3729336,41.0180177 Z M27.2663831,3.5835708 L12.7143466,3.56430058 L12.7191642,3.5835708 L12.7191642,7.11428612 L27.2712007,7.13383161 L27.2663831,3.5835708 Z M36.358481,5.33468225 L30.9032222,5.34899727 L30.9032222,7.11428612 C30.9080398,9.08700496 29.2875528,10.6883594 27.2760182,10.6979946 L12.7191642,10.6979946 C10.71754,10.6979946 9.09182256,9.08700504 9.09182256,7.11428612 L9.09182256,5.34899727 L3.6221112,5.34899727 L3.63656386,37.4632146 L36.3729336,37.4487619 L36.358481,5.33468225 L36.358481,5.33468225 Z M13.929884,22.1442238 L17.4604617,26.0222158 L26.0800264,16.775681 C26.7553096,16.0474047 27.9078058,15.9989539 28.6509477,16.664602 C29.006009,16.9796882 29.2185909,17.4249466 29.2403662,17.8991551 C29.2621414,18.3733635 29.0912599,18.8362304 28.766569,19.1825302 L18.7873532,29.8856175 C18.4384251,30.2539518 17.9537868,30.463189 17.4464219,30.4645497 L17.4319693,30.4645497 C16.9159406,30.4595945 16.4286796,30.2425294 16.0864958,29.8662097 L11.2193914,24.5218923 C10.5489257,23.7889362 10.616509,22.6602525 11.3640555,22.0042394 C12.1114644,21.3482265 13.2642358,21.4109922 13.929884,22.1442238 Z"
          id="形状"></path>
</svg>

<svg width="40" height="42" xmlns="http://www.w3.org/2000/svg"><path d="M36.373 41.018H3.623C1.624 41.018 0 39.421 0 37.463V5.335c.005-1.959 1.62-3.55 3.622-3.55h5.981A3.628 3.628 0 0 1 12.723 0h14.558c1.336 0 2.489.724 3.12 1.785h5.953C38.36 1.78 39.99 3.37 40 5.335v32.128c-.01 1.963-1.63 3.55-3.627 3.555zM27.266 3.584l-14.552-.02.005.02v3.53l14.552.02-.005-3.55zm9.092 1.75l-5.455.015v1.765c.005 1.973-1.615 3.574-3.627 3.584H12.719c-2.001 0-3.627-1.611-3.627-3.584V5.35h-5.47l.015 32.114 32.736-.014-.015-32.114zM13.93 22.145l3.53 3.878 8.62-9.246a1.843 1.843 0 0 1 2.57-.111 1.758 1.758 0 0 1 .117 2.518l-9.98 10.703a1.854 1.854 0 0 1-1.34.579h-.015a1.84 1.84 0 0 1-1.346-.599l-4.867-5.344a1.759 1.759 0 0 1 .145-2.518 1.843 1.843 0 0 1 2.566.14z"/></svg>
